dist/icons/twitter-black-icon.svg

<svg width="30" height="30" viewBox="0 0 30 30" fill="none" xmlns="http://www.w3.org/2000/svg">
<path d="M29.6973 11.4794C29.6694 11.5441 29.6973 11.5996 29.7159 11.655C29.7901 12.0247 29.8459 12.3944 29.8923 12.7641C29.9294 13.1061 29.9573 13.4481 29.9758 13.7993C30.0037 14.1967 30.0037 14.5849 29.9851 14.9823C29.9758 15.2966 29.948 15.6201 29.9201 15.9343C29.8644 16.5074 29.7716 17.0804 29.6509 17.6442C29.6416 17.6719 29.6416 17.7089 29.6416 17.7366C29.5951 18.0047 29.5116 18.2727 29.4373 18.5315C29.1866 19.3911 28.8709 20.2136 28.4716 21.0085C27.9702 22.0067 27.3573 22.9402 26.6423 23.7998C26.2338 24.2896 25.8066 24.7425 25.3423 25.1677C24.4974 25.9533 23.5688 26.628 22.5567 27.1918C21.7674 27.6262 20.9503 27.9959 20.1053 28.2824C19.3717 28.532 18.6289 28.7168 17.8674 28.837C17.4032 28.9109 16.9296 28.9664 16.456 29.0033C15.9175 29.0403 15.3696 29.0403 14.8311 29.0218C13.5868 28.9756 12.3797 28.763 11.1911 28.3933C9.79826 27.9682 8.50756 27.3397 7.30972 26.5263C7.29115 26.5171 7.28187 26.5078 7.2633 26.4986C7.25401 26.4801 7.24472 26.4709 7.23544 26.4616C7.22615 26.4431 7.20758 26.4339 7.17973 26.4339C7.17973 26.4154 7.16115 26.4062 7.15187 26.4062C7.1333 26.3692 7.10544 26.3507 7.0683 26.3507C7.04973 26.3137 7.02187 26.2953 6.98473 26.2953C6.98473 26.2768 6.96616 26.2675 6.95687 26.2675C6.9383 26.2306 6.91044 26.2121 6.8733 26.2121C6.84544 26.1659 6.81759 26.1381 6.76187 26.1289C6.7433 26.0919 6.71545 26.0734 6.6783 26.0734C6.66902 26.0457 6.65973 26.018 6.62259 26.018C6.59473 25.9718 6.56688 25.944 6.51116 25.9348C6.47402 25.8886 6.43688 25.8424 6.37188 25.8239C6.33474 25.7777 6.29759 25.7315 6.23259 25.713C6.20474 25.6668 6.17688 25.639 6.12117 25.6298C6.12117 25.5928 6.1026 25.5743 6.06545 25.5743C6.0376 25.5189 6.00045 25.4727 5.93546 25.4634C5.93546 25.4265 5.91688 25.408 5.87974 25.408C5.87974 25.3895 5.87046 25.3802 5.85189 25.3802C5.81474 25.3248 5.78689 25.2786 5.72189 25.2693C5.7126 25.2139 5.68474 25.1862 5.62903 25.1862C5.61975 25.1862 5.61975 25.1769 5.61046 25.1769C5.61046 25.1584 5.60117 25.1399 5.5826 25.1307C5.48975 25.029 5.41546 24.9181 5.28546 24.8627C5.27618 24.798 5.22975 24.7702 5.18332 24.724C5.02547 24.5761 4.89547 24.4098 4.71904 24.2711C4.71904 24.2342 4.70047 24.2157 4.67262 24.1972C4.49619 24.0123 4.33833 23.8183 4.18048 23.6242C4.15262 23.5872 4.12477 23.541 4.07834 23.5225C4.07834 23.4855 4.05977 23.467 4.0412 23.4393C3.93905 23.3007 3.82763 23.162 3.72549 23.0234C3.75334 23.0604 3.74406 23.0326 3.70691 23.0234C3.67906 22.9494 3.64191 22.8847 3.57692 22.8385C3.57692 22.7831 3.53049 22.7461 3.50263 22.6999C3.14978 22.1916 2.82478 21.6462 2.54622 21.0917C2.10979 20.2414 1.76623 19.3633 1.51551 18.4391C1.40409 18.0509 1.31123 17.6627 1.23695 17.2745C1.14409 16.8031 1.07909 16.3318 1.04195 15.8511C1.00481 15.4814 0.986236 15.1025 0.967665 14.7236C0.958379 14.3076 0.986236 13.8917 1.00481 13.4758C1.03266 13.0414 1.07909 12.607 1.15338 12.1818C1.25552 11.5441 1.40409 10.9156 1.5898 10.2964C1.90551 9.25195 2.33265 8.26299 2.87121 7.32025C3.47477 6.27584 4.19905 5.32385 5.03475 4.4458C5.45261 4.0114 5.9076 3.60473 6.38116 3.21654C7.09615 2.63426 7.87614 2.12592 8.69328 1.69152C10.0397 0.970594 11.4882 0.48998 13.0204 0.20346C13.5868 0.101792 14.1718 0.0555787 14.7475 0.0278509C15.091 0.00936579 15.4253 -0.00911937 15.7689 0.00936579C16.2146 0.0370935 16.6603 0.0463361 17.106 0.101792C17.4496 0.138762 17.7839 0.184975 18.1181 0.249673C18.5546 0.332856 18.991 0.434525 19.4274 0.554678C20.161 0.758015 20.876 1.02605 21.5724 1.34954C22.3617 1.71924 23.1138 2.15364 23.8288 2.65274C24.3952 3.05017 24.9245 3.48458 25.4259 3.95595C25.7045 4.22398 25.9738 4.50126 26.2338 4.78778C26.6702 5.26839 27.0695 5.77674 27.4409 6.31281C27.8959 6.95979 28.2952 7.66222 28.6387 8.39239C28.843 8.82679 29.0194 9.26119 29.1773 9.71407C29.363 10.2409 29.5116 10.777 29.6416 11.3223C29.6509 11.3685 29.6509 11.4147 29.6973 11.4332C29.6973 11.4517 29.6973 11.4609 29.6973 11.4794ZM5.57332 11.6088C5.57332 11.7937 5.59189 11.96 5.61975 12.1264C5.74974 12.9305 6.04688 13.6607 6.51116 14.3261C6.70616 14.6034 6.90116 14.8714 7.15187 15.084C7.54186 15.4075 7.969 15.7033 8.41471 15.9436C8.8047 16.1469 9.22256 16.2855 9.68683 16.3502C9.52898 16.4149 9.38041 16.4427 9.23184 16.4889C8.74899 16.6275 8.26614 16.6553 7.774 16.5536C7.56972 16.5166 7.38401 16.4427 7.18901 16.3872C7.16115 16.378 7.1333 16.3595 7.10544 16.3872C7.09615 16.4242 7.11473 16.4519 7.12401 16.4796C7.43972 17.4409 7.99686 18.2357 8.8047 18.855C9.01827 19.0214 9.24113 19.1692 9.48255 19.2801C9.93755 19.4742 10.4204 19.6129 10.9218 19.6591C11.024 19.6683 11.1168 19.6776 11.2375 19.6961C11.1818 19.733 11.154 19.7608 11.1168 19.7792C10.7547 20.0288 10.3833 20.2691 10.0025 20.4909C9.41755 20.8421 8.82327 21.1471 8.18257 21.3782C7.30044 21.6925 6.39045 21.8866 5.46189 21.9512C5.42475 21.9512 5.37832 21.942 5.35046 21.979C5.35046 21.9882 5.35975 21.9975 5.35975 22.0067C5.43403 22.0622 5.50832 22.1176 5.5826 22.1731C6.43688 22.7646 7.37472 23.2082 8.36828 23.5132C9.3247 23.809 10.309 23.9754 11.3118 24.0216C11.6832 24.0401 12.0454 24.0308 12.4168 24.0123C12.8532 23.9846 13.2896 23.9292 13.7261 23.846C14.9425 23.6149 16.0846 23.1898 17.1524 22.5797C18.5824 21.7572 19.7988 20.685 20.811 19.3818C21.7395 18.1803 22.4359 16.8678 22.9374 15.4352C23.1974 14.6958 23.3924 13.9287 23.5224 13.1616C23.6338 12.5423 23.6988 11.9138 23.7266 11.2853C23.7359 10.9896 23.7638 10.6938 23.7452 10.398C23.7266 10.1485 23.7359 9.88968 23.7266 9.64013C23.7266 9.56619 23.7452 9.51998 23.8102 9.47377C24.3302 9.14103 24.7852 8.73436 25.2123 8.29072C25.5281 7.96723 25.7695 7.61601 25.8995 7.18161C25.9088 7.15388 25.9366 7.11691 25.9088 7.07994C25.8066 7.12615 25.7045 7.18161 25.6023 7.22782C25.2402 7.40343 24.8781 7.5698 24.4881 7.66222C24.1816 7.73616 23.8845 7.79162 23.5688 7.74541C23.5316 7.73616 23.4759 7.76389 23.4666 7.70844C23.4574 7.66222 23.5224 7.66222 23.5595 7.64374C23.9588 7.48661 24.2931 7.23706 24.5716 6.90433C24.8502 6.5716 25.0359 6.18341 25.2031 5.78598C25.2681 5.61961 25.2866 5.444 25.2588 5.25915C25.2123 5.25915 25.1752 5.28688 25.1381 5.30536C24.8316 5.46249 24.5159 5.61961 24.2095 5.76749C23.7452 5.98931 23.2809 6.18341 22.7795 6.30356C22.6774 6.33129 22.6217 6.31281 22.5474 6.23886C22.2967 5.98932 22.0274 5.74901 21.7395 5.54567C21.0988 5.08354 20.3653 4.90793 19.5853 4.86172C19.2603 4.84324 18.926 4.87096 18.6103 4.93566C17.3196 5.21294 16.3539 5.93386 15.6946 7.0707C15.3882 7.59752 15.2118 8.17056 15.156 8.78057C15.1189 9.19649 15.1096 9.60316 15.2118 10.0098C15.2396 10.1392 15.2675 10.2779 15.2953 10.4165C15.3139 10.5182 15.3046 10.5274 15.2025 10.5274C14.7382 10.5274 14.2832 10.5367 13.8189 10.4905C13.2339 10.4258 12.6582 10.2964 12.0918 10.1207C11.2097 9.84347 10.374 9.46452 9.58469 9.0024C8.69328 8.44784 7.84829 7.81935 7.1333 7.04297C6.79902 6.68251 6.49259 6.31281 6.27902 5.86916C6.26974 5.84143 6.26045 5.81371 6.22331 5.80446C6.19545 5.81371 6.17688 5.85068 6.1676 5.8784C5.78689 6.58084 5.59189 7.32949 5.56403 8.13359C5.55475 8.39239 5.5826 8.65118 5.61975 8.90997C5.65689 9.15028 5.70332 9.39058 5.79617 9.62165C5.94474 9.96362 6.11188 10.2964 6.31617 10.6106C6.7433 11.2668 7.28187 11.8029 7.98757 12.1541C8.01543 12.1726 8.06186 12.1726 8.07114 12.2188C8.02471 12.2096 7.969 12.2096 7.92257 12.2096C7.57901 12.2096 7.24472 12.1726 6.90116 12.1264C6.51116 12.0709 6.13974 11.9508 5.80546 11.7474C5.73117 11.7012 5.66617 11.655 5.57332 11.6088Z" fill="#231F20"/>
</svg>

<svg width="30" height="30" fill="none" xmlns="http://www.w3.org/2000/svg"><path d="M29.697 11.48c-.028.064 0 .12.019.175.074.37.13.74.176 1.11.037.341.065.683.084 1.034.028.398.028.786.01 1.183a15.224 15.224 0 01-.334 2.662c-.01.028-.01.065-.01.093-.047.268-.13.536-.205.795-.25.86-.566 1.682-.965 2.477a14.628 14.628 0 01-3.13 4.159 14.283 14.283 0 01-2.785 2.024 15.26 15.26 0 01-2.452 1.09c-.733.25-1.476.435-2.238.555a17.3 17.3 0 01-1.411.166c-.538.037-1.086.037-1.625.019a13.917 13.917 0 01-3.64-.629 14.315 14.315 0 01-3.881-1.867c-.019-.009-.028-.018-.047-.027a.105.105 0 00-.028-.037c-.009-.019-.027-.028-.055-.028 0-.019-.019-.028-.028-.028-.019-.037-.047-.055-.084-.055-.018-.037-.046-.056-.083-.056 0-.018-.019-.028-.028-.028-.019-.036-.047-.055-.084-.055-.028-.046-.055-.074-.111-.083-.019-.037-.047-.056-.084-.056-.009-.027-.018-.055-.055-.055-.028-.046-.056-.074-.112-.083-.037-.046-.074-.093-.14-.111-.036-.046-.073-.093-.138-.111-.028-.046-.056-.074-.112-.083 0-.037-.018-.056-.056-.056-.027-.055-.065-.101-.13-.11 0-.037-.018-.056-.055-.056 0-.018-.01-.028-.028-.028-.037-.055-.065-.101-.13-.11-.01-.056-.037-.084-.093-.084-.01 0-.01-.01-.019-.01a.05.05 0 00-.027-.045c-.093-.102-.168-.213-.298-.268-.009-.065-.055-.093-.102-.139-.158-.148-.288-.314-.464-.453 0-.037-.019-.055-.046-.074a9.47 9.47 0 01-.493-.573c-.027-.037-.055-.083-.102-.101 0-.038-.018-.056-.037-.084-.102-.138-.213-.277-.316-.416.028.037.02.01-.018 0a.376.376 0 00-.13-.184c0-.056-.047-.093-.074-.14a13.359 13.359 0 01-.957-1.607c-.436-.85-.78-1.729-1.03-2.653a13.239 13.239 0 01-.474-2.588c-.037-.37-.056-.749-.074-1.127-.01-.416.018-.832.037-1.248.028-.435.074-.869.148-1.294.103-.638.251-1.266.437-1.886A14.336 14.336 0 012.87 7.32a15.165 15.165 0 012.164-2.874 15.47 15.47 0 011.346-1.23 14.265 14.265 0 012.312-1.524C10.04.97 11.488.49 13.02.203a13.498 13.498 0 011.728-.175 9.385 9.385 0 011.02-.019c.447.028.892.037 1.338.093.344.037.678.083 1.012.148.437.083.873.185 1.31.305.733.203 1.448.471 2.144.795a14.498 14.498 0 013.854 2.606c.279.268.548.545.808.832.436.48.835.989 1.207 1.525a13.982 13.982 0 011.736 3.401c.186.527.335 1.063.465 1.608.009.046.009.093.055.111v.046zm-24.124.129c0 .185.019.351.047.517.13.805.427 1.535.891 2.2.195.277.39.545.64.758.39.324.818.62 1.264.86.39.203.808.341 1.272.406-.158.065-.307.093-.455.139a2.997 2.997 0 01-1.458.065c-.204-.037-.39-.111-.585-.167-.028-.009-.056-.027-.084 0-.009.037.01.065.019.093a4.822 4.822 0 001.68 2.375c.214.166.437.314.679.425a4.82 4.82 0 001.439.38c.102.008.195.018.316.036-.056.037-.084.065-.121.083-.362.25-.734.49-1.115.712a10.31 10.31 0 01-1.82.887c-.882.314-1.792.509-2.72.573-.037 0-.084-.009-.112.028 0 .01.01.018.01.028l.223.166a10.059 10.059 0 002.785 1.34c.957.296 1.941.462 2.944.509.371.018.733.009 1.105-.01a11.004 11.004 0 004.736-1.433 12.477 12.477 0 003.658-3.197 13.889 13.889 0 002.126-3.947c.26-.74.455-1.506.585-2.273.112-.62.177-1.248.205-1.877.009-.295.037-.591.018-.887-.018-.25-.01-.508-.018-.758 0-.074.018-.12.083-.166.52-.333.975-.74 1.402-1.183.316-.324.558-.675.688-1.11.009-.027.037-.064.009-.101-.102.046-.204.102-.307.148-.362.175-.724.342-1.114.434-.306.074-.604.13-.92.083-.036-.009-.092.019-.101-.037-.01-.046.055-.046.093-.064a2.5 2.5 0 001.012-.74c.278-.332.464-.72.631-1.118a1.01 1.01 0 00.056-.527c-.047 0-.084.028-.12.046a43.54 43.54 0 01-.93.462c-.464.222-.928.416-1.43.537-.102.027-.157.009-.232-.065-.25-.25-.52-.49-.808-.693-.64-.462-1.374-.638-2.154-.684a3.79 3.79 0 00-.975.074c-1.29.277-2.256.998-2.915 2.135a4.107 4.107 0 00-.539 1.71c-.037.415-.046.822.056 1.229.028.13.056.268.083.406.019.102.01.111-.092.111-.465 0-.92.01-1.384-.036a9.27 9.27 0 01-1.727-.37 12.195 12.195 0 01-2.507-1.119c-.892-.554-1.737-1.183-2.452-1.959-.334-.36-.64-.73-.854-1.174-.01-.028-.019-.055-.056-.065-.028.01-.046.047-.055.074a5.017 5.017 0 00-.604 2.256c-.01.258.019.517.056.776.037.24.083.48.176.712.149.342.316.674.52.989.427.656.966 1.192 1.672 1.543.027.019.074.019.083.065-.046-.01-.102-.01-.148-.01a7.61 7.61 0 01-1.022-.083 2.866 2.866 0 01-1.096-.379c-.074-.046-.139-.092-.232-.138z" fill="#231F20"/></svg>
